mini_fiction/frontend/src/images/markitup/float-right.svg

<svg><path class="ql-fill" d="M5 8H3a1 1 0 0 1 0-2h2a1 1 0 0 1 0 2zM5 12H3a1 1 0 0 1 0-2h2a1 1 0 0 1 0 2zM13 16H3a1 1 0 0 1 0-2h10a1 1 0 0 1 0 2zM13 4H3a1 1 0 0 1 0-2h10a1 1 0 0 1 0 2z"/><rect class="ql-fill" x="8" y="6" width="8" height="6" rx="1" ry="1" transform="rotate(-180 12 9)"/></svg>

<svg viewbox="0 0 18 18">
  <path class="ql-fill" d="M5,8H3A1,1,0,0,1,3,6H5A1,1,0,0,1,5,8Z"/>
  <path class="ql-fill" d="M5,12H3a1,1,0,0,1,0-2H5A1,1,0,0,1,5,12Z"/>
  <path class="ql-fill" d="M13,16H3a1,1,0,0,1,0-2H13A1,1,0,0,1,13,16Z"/>
  <path class="ql-fill" d="M13,4H3A1,1,0,0,1,3,2H13A1,1,0,0,1,13,4Z"/>
  <rect class="ql-fill" x="8" y="6" width="8" height="6" rx="1" ry="1" transform="translate(24 18) rotate(-180)"/>
</svg>
